!!!COM: black-eyed-peas
!!!OTL: just-cant-get-enough
!!!RNB: hooktheoryid: pyvgPG-dmYq
**kern	**text
*clefG2	*
*k[b-e-a-]	*
*M4/4	*
=1	=1
4r	Cm
16cc	.
16b-	.
16b-	.
16b-	.
8g	Bb
8f	.
8e-	.
16f	.
[16g	.
=2	=2
4.g]	Eb
16B-	.
[16cL	.
8.c]J	Ab
16c]	.
8r	.
16e-	.
16f	.
=3	=3
8g	Cm
8g	.
8g	.
8g	.
8f	Bb
8f	.
8f	.
8e-	.
=4	=4
4.c	Ab
2r	.
8r	.
=5	=5
8.r	Cm
16c	.
16cc	.
16cc	.
16b-	.
16b-	.
8g	Bb
8f	.
8e-	.
16f	.
[16g	.
=6	=6
4.g]	Eb
16B-	.
[16cL	.
8.c]J	Ab
16c]	.
8r	.
16e-	.
16f	.
=7	=7
8g	Eb
8g	.
8g	.
8g	.
8a-	Fm
8a-	.
8a-	.
16b-	.
[16g	.
=8	=8
4g]	Cm
2.r	.
*-	*-